X:144
T:Charles Sutherland
C:J Murdoch Henderson
D:Hardie/Marwick
Z:Nigel Gatherer
M:4/4
L:1/8
K:E
B2|E2- eg fdec|B2 BG cBGB|c2 Ac B2 ge|fgfe dBcd|
E2- eg fdec|B2 BG cBGB|c2 Ac Bgbg|afdf e2:|
a2|g2 eg bge=d|c2 ac B2 gB|A2 fA G2 ge|fgfe dBBa|
g2 eg bge=d|ceac Bege|c2 Ac Bgbg|afdf e2:|
<end>
<start>
